icons/heart_cardiogram_fill.svg

<svg width="48" height="48" viewBox="0 0 48 48" fill="none" xmlns="http://www.w3.org/2000/svg">
<path d="M9 19.0345C9 13.3091 12.8117 8 18.0312 8C21.6533 8 24.341 10.382 26 13.7611C27.6589 10.3822 30.3466 8 33.9688 8C39.1889 8 43 13.31 43 19.0345C43 31.2888 26 40 26 40C26 40 14.5487 34.4872 10.4431 25.4444H20.5848L22.1968 22.5788L24.0797 29.1692L28.4891 23.5H34V21.5H27.5109L24.9203 24.8308L22.8032 17.4212L19.4152 23.4444H9.67984C9.89182 24.1288 10.1486 24.7957 10.4431 25.4444L6 25.4443V23.4443L9.67984 23.4444C9.24643 22.0453 9 20.5731 9 19.0345Z" fill="black"/>
</svg>

<svg
  xmlns="http://www.w3.org/2000/svg"
  width="24"
  height="24"
  viewBox="0 0 24 24"
  fill="none"
  stroke="currentColor"
  stroke-width="2"
  stroke-linecap="round"
  stroke-linejoin="round"
>
  <path d="M9 19.035C9 13.309 12.812 8 18.031 8c3.622 0 6.31 2.382 7.969 5.761C27.659 10.382 30.347 8 33.969 8 39.189 8 43 13.31 43 19.035 43 31.289 26 40 26 40s-11.451-5.513-15.557-14.556h10.142l1.612-2.865 1.883 6.59 4.41-5.669H34v-2h-6.49l-2.59 3.33-2.117-7.409-3.388 6.023H9.68q.32 1.028.763 2H6v-2h3.68c-.434-1.399-.68-2.87-.68-4.41" />
</svg>
